X: 32920
T: Prampushing
R: reel
M: 4/4
K: Amajor
|:A2 BA GF E2|A2 Bc d2 cd|edef edcB|A2c2E4|
A2 AB GF E2|A2 Bc d2 cd|edef edcB|A2G2 A4:|
|:ABcd e2e2|fedc d2 cd|edef edcB|A2c2 E4|
A2 AB GF E2|A2 Bc d2 cd|edef edcB|A2G2 A4:|

